10-Performance/src/img/key.svg

<?xml version="1.0" encoding="UTF-8"?>
<svg width="48px" height="45px" viewBox="0 0 48 45" version="1.1" xmlns="http://www.w3.org/2000/svg" xmlns:xlink="http://www.w3.org/1999/xlink">
    <!-- Generator: Sketch 51.2 (57519) - http://www.bohemiancoding.com/sketch -->
    <title>key</title>
    <desc>Created with Sketch.</desc>
    <defs></defs>
    <g id="Events" stroke="none" stroke-width="1" fill="none" fill-rule="evenodd">
        <g id="Assets" transform="translate(-246.000000, -243.000000)">
            <g id="Icon" transform="translate(244.000000, 239.000000)">
                <circle id="Oval" fill-opacity="0" fill="#D8D8D8" cx="26" cy="26" r="26"></circle>
                <g id="smart-home" transform="translate(2.000000, 4.000000)" fill="#333333" fill-rule="nonzero">
                    <path d="M47.65623,20.3530662 L24.6562797,0.245927964 C24.28128,-0.0819759881 23.7187804,-0.0819759881 23.3437807,0.245927964 L0.343736634,20.3530662 C0.0292993857,20.6289428 -0.0820755251,21.0717404 0.0624868591,21.46449 C0.209017992,21.8572396 0.582048943,22.1173761 0.999986108,22.1173761 L6.0000446,22.1173761 L6.0000446,43.2299042 C6.0000446,43.7856161 6.44732549,44.2352941 7.00007505,44.2352941 L41.0000791,44.2352941 C41.5528286,44.2352941 42.0001095,43.7856161 42.0001095,43.2299042 L42.0001095,22.1173761 L47.0000742,22.1173761 C47.4180114,22.1173761 47.7911361,21.8572396 47.9375735,21.46449 C48.0820421,21.0717404 47.9706672,20.6289428 47.65623,20.3530662 Z M40.9999853,20.1066905 C40.4472357,20.1066905 39.9999549,20.5563685 39.9999549,21.1120804 L39.9999549,42.2246086 L8.00001175,42.2246086 L8.00001175,21.1120804 C8.00001175,20.5563685 7.55273086,20.1066905 6.9999813,20.1066905 L3.67382772,20.1066905 L24.0000302,2.33719928 L44.3262326,20.1066905 L40.9999853,20.1066905 Z" id="Shape"></path>
                    <circle id="Oval" cx="28.2352941" cy="22.5882353" r="1.88235294"></circle>
                    <path d="M20.3293632,23.2469715 C20.3293632,24.0264484 20.4568005,24.7958313 20.7115779,25.5420172 L14.4209535,31.8326711 C14.2268374,32.0267882 14.1176471,32.2896226 14.1176471,32.5646865 L14.1176471,35.6705591 C14.1176471,36.2428162 14.5807111,36.7058824 15.1529654,36.7058824 L18.2588235,36.7058824 C18.533789,36.7058824 18.7967193,36.5966915 18.9908355,36.4025745 L25.2814598,30.1129882 C26.0276422,30.3657286 26.7959539,30.4941371 27.5764949,30.4941371 C31.5720842,30.4941371 34.8235294,27.2426766 34.8235294,23.2470685 C34.8235294,19.2514604 31.5720842,16 27.5764949,16 C23.5809055,16 20.3293632,19.2513634 20.3293632,23.2469715 Z M27.5763978,18.0704524 C30.4315549,18.0704524 32.7527956,20.3927716 32.7527956,23.2468744 C32.7527956,26.1009773 30.4314578,28.4233935 27.5763978,28.4233935 C26.8525387,28.4233935 26.1386767,28.266644 25.4552908,27.9573185 C25.0590028,27.777372 24.5979769,27.8632688 24.2966117,28.1686149 L17.8301181,34.6351388 L16.1881868,34.6351388 L16.1881868,32.9931998 L22.6546804,26.5266759 C22.960025,26.2223975 23.0429126,25.7613695 22.8670434,25.369059 C22.5576223,24.6835346 22.3999029,23.9687957 22.3999029,23.2468744 C22.3999029,20.3928686 24.7212407,18.0704524 27.5763978,18.0704524 Z" id="Shape"></path>
                </g>
            </g>
        </g>
    </g>
</svg>

<svg width="48" height="45" viewBox="0 0 48 45" xmlns="http://www.w3.org/2000/svg"><g transform="translate(-2 -4)" fill="none" fill-rule="evenodd"><circle fill="none" cx="26" cy="26" r="26"/><g transform="translate(2 4)" fill="#333" fill-rule="nonzero"><path d="M47.656 20.353l-23-20.107a.999.999 0 00-1.312 0l-23 20.107a1.014 1.014 0 00-.282 1.111 1 1 0 00.938.653h5V43.23c0 .556.447 1.005 1 1.005h34c.553 0 1-.45 1-1.005V22.117h5a1 1 0 00.938-.653 1.014 1.014 0 00-.282-1.11zM41 20.107c-.553 0-1 .45-1 1.005v21.113H8V21.112c0-.556-.447-1.005-1-1.005H3.674L24 2.337l20.326 17.77H41z"/><circle cx="28.235" cy="22.588" r="1.882"/><path d="M20.33 23.247c0 .78.127 1.549.382 2.295l-6.291 6.29a1.035 1.035 0 00-.303.733v3.106c0 .572.463 1.035 1.035 1.035h3.106c.275 0 .538-.11.732-.303l6.29-6.29a7.124 7.124 0 002.295.381c3.996 0 7.248-3.251 7.248-7.247S31.572 16 27.576 16c-3.995 0-7.247 3.251-7.247 7.247zm7.246-5.177a5.182 5.182 0 015.177 5.177 5.182 5.182 0 01-5.177 5.176 5.116 5.116 0 01-2.12-.466 1.028 1.028 0 00-1.16.212l-6.466 6.466h-1.642v-1.642l6.467-6.466c.305-.305.388-.766.212-1.158a5.135 5.135 0 01-.467-2.122 5.182 5.182 0 015.176-5.177z"/></g></g></svg>
